src/actions/16/messagebox_warning.svg

<svg viewBox="0 0 16 16" xmlns="http://www.w3.org/2000/svg">
 <defs>
  <style type="text/css">.ColorScheme-Text {
        color:#2e3440;
      }
      .ColorScheme-NegativeText {
        color:#bf616a;
      }</style>
 </defs>
 <path class="ColorScheme-Text" d="m3 2v12h10v-12zm1 1h8v10h-8z" fill="currentColor"/>
 <path class="ColorScheme-NegativeText" d="m7 4v5h2v-5h-2zm0 6v2h2v-2h-2z" fill="currentColor"/>
</svg>

<svg xmlns="http://www.w3.org/2000/svg" viewBox="0 0 16 16">
  <defs id="defs3051">
    <style type="text/css" id="current-color-scheme">
      .ColorScheme-Text {
        color:#2e3440;
      }
      .ColorScheme-NegativeText {
        color:#bf616a;
      }
      </style>
  </defs>
  <path style="fill:currentColor;fill-opacity:1;stroke:none" 
     d="m 3,2 0,12 10,0 0,-12 z m 1,1 8,0 0,10 -8,0 z"
     class="ColorScheme-Text"
     />
  <path
      style="fill:currentColor;fill-opacity:1;stroke:none" 
     class="ColorScheme-NegativeText"
    d="M 7 4 L 7 9 L 9 9 L 9 4 L 7 4 z M 7 10 L 7 12 L 9 12 L 9 10 L 7 10 z "/>
</svg>
